X:11
T:Norsk Reil\"ander
R:reil\"ander
H:Se \"aven nr 7
A:Norge
Z:id:hn-schottis-11
M:C|
K:Amix
ABcd eege|feec A2cA|B2G2 GGBd|c2A2 A2E2|
ABcd eege|feec A2cA|B2G2 GGBd|c2A2 A4:|
|:a2a2 a2ba|g2e2 e3f|edcB cdeg|f2ed e2fg|
a2a2 a2ba|gfed e3f|edcB cBAG|A4 A4:|
